X: 59
M:C|
L:1/8
K:Bb
((3uFGA)|vBFDF B2(AB)|cAFA c2(Bc)|dcBA GABc|A2F2F2(GA)|
|:(uf=e)|vf_edc =BGAB|{d}c=Bcd e2(ed)|edcB AFGA|{c}BABc dfec|


